icon-svg/sonarr.svg

<svg xmlns="http://www.w3.org/2000/svg" fill="#44739e" viewBox="0 0 24 24"><path d="m7.338 16.322.165.159-2.491 2.495.13.129 2.493-2.498.164.159 1.531-1.59-.461-.444zm.106-8.651-.161.161L8.855 9.4l.452-.453-1.572-1.568-.162.162L5 4.976c-.044.043-.084.088-.127.132ZM5 4.976c-.043.043-.085.087-.128.131.043-.043.083-.088.128-.131m0-.001-.129.13c.043-.044.085-.088.128-.131ZM16.631 16.24l-1.648-1.64-.451.453 1.647 1.64.161-.162 2.533 2.621.007-.006.053-.052c.023-.023.046-.048.067-.073L16.469 16.4ZM19 19.025c-.021.025-.044.05-.067.073zm-.127.127.007-.006zm-2.397-11.69.062.065-.063-.065-.163-.162-1.549 1.575.455.449 1.549-1.572-.163-.16 2.544-2.476c-.042-.044-.083-.089-.126-.132Zm2.672-2.346-.127-.132c.044.043.085.088.127.132m.024-.023-.128-.131-.022.021.127.132zm-7.156 4.139a2.662 2.662 0 0 0-1.941.8 2.618 2.618 0 0 0-.795 1.745.05.05 0 0 0 0 .019v.365a3.2 3.2 0 0 0 .037.325 2.61 2.61 0 0 0 .763 1.434 2.4 2.4 0 0 0 .342.292 2.761 2.761 0 0 0 3.2 0 2.44 2.44 0 0 0 .279-.233.55.55 0 0 0 .059-.059 2.762 2.762 0 0 0 0-3.888 2.653 2.653 0 0 0-1.944-.8m6.917 9.862-.053.052c.02-.017.036-.034.053-.052M5.823 4.238l-.008.007Zm-.822.736-.002.002zm.307 14.333-.02-.018ZM7.505 12.1a5.636 5.636 0 0 0-1.426-4.257c-.806-.806-1.92-1.916-1.923-1.919a9.314 9.314 0 0 0-2.024 5.35.127.127 0 0 0-.018.064Q2.1 11.653 2.1 12c0 .219 0 .439.014.658a9.8 9.8 0 0 0 .132 1.169 9.28 9.28 0 0 0 2.038 4.4c.007-.007.9-.9 1.75-1.754A5.63 5.63 0 0 0 7.505 12.1m4.527 4.587c-1.806 0-3.036.167-4.358 1.49-.775.774-1.659 1.663-1.694 1.7.084.065.168.128.255.189a9.428 9.428 0 0 0 5.774 1.846 9.485 9.485 0 0 0 5.784-1.846c.1-.068.189-.139.282-.211l-1.6-1.6c-1.428-1.431-2.56-1.568-4.443-1.568m-6.113 3.142L5.9 19.81Zm-.31-.252-.023-.021Zm6.423-11.986a5.862 5.862 0 0 0 4.441-1.562c.753-.753 1.744-1.74 1.762-1.758a9.523 9.523 0 0 0-6.226-2.18 9.557 9.557 0 0 0-6.186 2.147L7.683 6.1a5.788 5.788 0 0 0 4.349 1.491m6.99-2.607v-.001l-.009-.009-.002-.002.002.002Zm-1.183 3.037c-1.2 1.2-1.3 2.238-1.3 4.075a5.714 5.714 0 0 0 1.48 4.358c.879.879 1.712 1.708 1.734 1.73A9.547 9.547 0 0 0 21.9 12a9.614 9.614 0 0 0-2.429-6.531c.144.166.283.334.414.5zm1.525 10.616-.022.023zM19.233 5.2l-.084-.089z"/></svg>

<?xml version="1.0" encoding="UTF-8"?>
<svg width="24px" fill="#44739e" height="24px" viewBox="0 0 24 24" version="1.1" xmlns="http://www.w3.org/2000/svg" xmlns:xlink="http://www.w3.org/1999/xlink">
            <path d="m 7.338,16.322 0.165,0.159 -2.491,2.495 0.13,0.129 2.493,-2.498 0.164,0.159 1.531,-1.59 -0.461,-0.444 z M 7.444,7.671 7.283,7.832 8.855,9.4 9.307,8.947 7.735,7.379 7.573,7.541 5,4.976 C 4.956,5.019 4.916,5.064 4.873,5.108 Z M 5,4.976 v 0 C 4.957,5.019 4.915,5.063 4.872,5.107 v 0 C 4.915,5.064 4.955,5.019 5,4.976 Z M 5,4.975 4.871,5.105 v 0 C 4.914,5.061 4.956,5.017 4.999,4.974 Z m 11.631,11.265 -1.648,-1.64 -0.451,0.453 1.647,1.64 0.161,-0.162 2.533,2.621 0.007,-0.006 0.053,-0.052 C 18.956,19.071 18.979,19.046 19,19.021 L 16.469,16.4 Z M 19,19.025 v 0 c -0.021,0.025 -0.044,0.05 -0.067,0.073 z m -0.127,0.127 0.007,-0.006 z m -2.397,-11.69 0.062,0.065 v 0 L 16.475,7.462 v 0 L 16.312,7.3 14.763,8.875 15.218,9.324 16.767,7.752 16.604,7.592 19.148,5.116 C 19.106,5.072 19.065,5.027 19.022,4.984 Z m 2.672,-2.346 v 0 L 19.021,4.984 v 0 c 0.044,0.043 0.085,0.088 0.127,0.132 z m 0.024,-0.023 -0.128,-0.131 -0.022,0.021 0.127,0.132 z m -7.156,4.139 a 2.662,2.662 0 0 0 -1.941,0.8 2.618,2.618 0 0 0 -0.795,1.745 0.049,0.049 0 0 0 0,0.019 c 0,0.058 0,0.118 0,0.182 0,0.064 0,0.122 0,0.183 a 3.167,3.167 0 0 0 0.037,0.325 2.61,2.61 0 0 0 0.763,1.434 2.4,2.4 0 0 0 0.342,0.292 2.761,2.761 0 0 0 3.2,0 2.443,2.443 0 0 0 0.279,-0.233 0.548,0.548 0 0 0 0.059,-0.059 2.762,2.762 0 0 0 0,-3.888 2.653,2.653 0 0 0 -1.944,-0.8 z m 6.917,9.862 -0.053,0.052 c 0.02,-0.017 0.036,-0.034 0.053,-0.052 z M 5.823,4.238 5.815,4.245 Z M 5.001,4.974 4.999,4.976 v 0 z M 5.308,19.307 5.288,19.289 Z M 7.505,12.1 A 5.636,5.636 0 0 0 6.079,7.843 C 5.273,7.037 4.159,5.927 4.156,5.924 a 9.314,9.314 0 0 0 -2.024,5.35 0.127,0.127 0 0 0 -0.018,0.064 Q 2.1,11.653 2.1,12 c 0,0.219 0,0.439 0.014,0.658 a 9.789,9.789 0 0 0 0.132,1.169 9.281,9.281 0 0 0 2.038,4.4 c 0.007,-0.007 0.9,-0.9 1.75,-1.754 A 5.629,5.629 0 0 0 7.505,12.1 Z m 4.527,4.587 c -1.806,0 -3.036,0.167 -4.358,1.49 -0.775,0.774 -1.659,1.663 -1.694,1.7 0.084,0.065 0.168,0.128 0.255,0.189 a 9.428,9.428 0 0 0 5.774,1.846 9.485,9.485 0 0 0 5.784,-1.846 c 0.1,-0.068 0.189,-0.139 0.282,-0.211 l -1.6,-1.6 c -1.428,-1.431 -2.56,-1.568 -4.443,-1.568 z M 5.919,19.829 5.9,19.81 Z M 5.609,19.577 5.586,19.556 Z M 12.032,7.591 a 5.862,5.862 0 0 0 4.441,-1.562 c 0.753,-0.753 1.744,-1.74 1.762,-1.758 A 9.523,9.523 0 0 0 12.009,2.091 9.557,9.557 0 0 0 5.823,4.238 L 7.683,6.1 a 5.788,5.788 0 0 0 4.349,1.491 z m 6.99,-2.607 V 4.983 L 19.013,4.974 19.011,4.972 19.013,4.974 Z m -1.183,3.037 c -1.2,1.2 -1.3,2.238 -1.3,4.075 a 5.714,5.714 0 0 0 1.48,4.358 c 0.879,0.879 1.712,1.708 1.734,1.73 A 9.547,9.547 0 0 0 21.9,12 9.614,9.614 0 0 0 19.471,5.469 c 0.144,0.166 0.283,0.334 0.414,0.5 z m 1.525,10.616 -0.022,0.023 z M 19.233,5.2 19.149,5.111 v 0 z"/>

</svg>
